X:515
T:Comment qu'a moy
Z:Jack Campin, http://www.campin.me.uk/
F:Jack Campin's Nine-Note Tunebook
% last edit 26-02-2013
C:Guillaume de Machaut 
P:ABBAA
M:6/8
L:1/8
Q:3/8=60
K:DDor
P:A
D|FED  DDE|F3  FFG|AGA   FG2 |A3   z2
G|AB2  cA2|BcB AA2|DE2   FE2 |D3-  D2 ||
P:B
B|dd2 ^cB2|d3  A3 |AG^F ^GFG|AAG ^F^G2|A3 z2||

